assets/logos/color_logo/gba.svg

<?xml version="1.0" encoding="UTF-8" standalone="no"?>
<svg
   xmlns:dc="http://purl.org/dc/elements/1.1/"
   xmlns:cc="http://creativecommons.org/ns#"
   xmlns:rdf="http://www.w3.org/1999/02/22-rdf-syntax-ns#"
   xmlns:svg="http://www.w3.org/2000/svg"
   xmlns="http://www.w3.org/2000/svg"
   xmlns:sodipodi="http://sodipodi.sourceforge.net/DTD/sodipodi-0.dtd"
   xmlns:inkscape="http://www.inkscape.org/namespaces/inkscape"
   width="500"
   height="200"
   viewBox="0 0 500 200"
   version="1.1"
   id="svg215"
   sodipodi:docname="gba.svg"
   style="fill:none"
   inkscape:version="0.92.5 (2060ec1f9f, 2020-04-08)">
  <metadata
     id="metadata221">
    <rdf:RDF>
      <cc:Work
         rdf:about="">
        <dc:format>image/svg+xml</dc:format>
        <dc:type
           rdf:resource="http://purl.org/dc/dcmitype/StillImage" />
        <dc:title></dc:title>
      </cc:Work>
    </rdf:RDF>
  </metadata>
  <defs
     id="defs219" />
  <sodipodi:namedview
     pagecolor="#ffffff"
     bordercolor="#666666"
     borderopacity="1"
     objecttolerance="10"
     gridtolerance="10"
     guidetolerance="10"
     inkscape:pageopacity="0"
     inkscape:pageshadow="2"
     inkscape:window-width="1366"
     inkscape:window-height="740"
     id="namedview217"
     showgrid="false"
     inkscape:pagecheckerboard="true"
     inkscape:zoom="1.2092391"
     inkscape:cx="241.5"
     inkscape:cy="68"
     inkscape:window-x="0"
     inkscape:window-y="0"
     inkscape:window-maximized="1"
     inkscape:current-layer="svg215" />
  <g
     id="mainlogo"
     transform="matrix(1.0291644,0,0,1.0291644,-0.82696629,25.32702)">
    <g
       id="Gameboy_advance_logo">
      <path
         id="Path"
         d="m 169.32,80.08 c 6.12,0 9.84,2.64 13.44,6.96 1.32,-1.2 2.64,-2.28 4.2,-3.24 3.72,-2.4 7.92,-3.6 12.12,-3.6 h 56.4 l -3.72,5.88 70.8,-0.12 6.48,11.16 5.76,-11.04 h 47.04 l 11.64,9.12 v -9.12 h 88.56 v 42.36 h -81.72 l -11.88,-9.24 v 9.24 H 322.2 l -4.44,-7.32 c -3.6,4.08 -10.08,7.32 -20.76,7.32 h -58.8 c -1.92,1.92 -3.96,2.16 -6.36,2.04 l -0.6,3.84 h -22.68 l 0.48,-3.24 c -0.24,0.12 -0.48,0.36 -0.72,0.48 -5.28,3.24 -11.28,4.32 -16.92,3 -4.32,-0.96 -8.16,-3.36 -11.04,-6.48 -3.84,3.72 -9,6.24 -13.92,6.24 l -111.48,0.12 -1.8,-10.2 -4.56,10.2 H 30 C 24.12,135.4 18.24,134.56 12.96,131.92 5.75997,128.08 0.959969,121.36 0.239969,113.8 -1.08003,101.2 3.83997,91.12 14.16,84.76 24.12,78.64 34.68,77.32 45.6,81.16 l 2.04,0.72 0.72,-1.68 h 20.88 l 1.56,9.36 3.12,-9.48 z"
         inkscape:connector-curvature="0"
         style="fill:#1f00cc" />
      <path
         id="Shape"
         d="m 339,93.04 h 8.64 l -0.72,1.2 -15.24,26.4 -0.24,0.36 h -5.4 l -0.24,-0.36 -11.04,-18.24 c 0.36,1.32 0.6,2.76 0.6,4.44 0,9.36 -6.24,14.16 -18.36,14.16 h -14.04 -9.12 l -0.24,-0.36 -11.4,-20.28 -8.04,14.52 h 8.04 v 6.24 h -13.68 -6.12 l 0.72,-1.2 15.72,-26.4 0.24,-0.36 h 7.08 l 0.24,0.36 13.8,22.8 V 93.04 h 18.6 c 5.64,0 9.96,1.44 12.84,4.2 l -1.8,-2.88 -0.72,-1.2 h 9.24 l 0.24,0.36 10.44,17.88 9.72,-17.88 z m -50.76,21.48 h 7.44 c 8.52,0 11.52,-1.92 11.52,-7.92 0,-4.92 -2.76,-7.2 -8.4,-7.2 h -10.56 z"
         inkscape:connector-curvature="0"
         style="clip-rule:evenodd;fill:#ffffff;fill-rule:evenodd" />
      <path
         id="Path_2"
         d="m 401.28,93.04 h -0.84 v 16.68 l -21,-16.44 -0.24,-0.24 h -5.52 v 23.28 l -13.8,-22.8 -0.24,-0.48 h -7.08 l -0.24,0.48 -15.72,26.28 -0.72,1.32 h 8.4 11.52 v -6.24 h -8.04 l 8.04,-14.52 11.4,20.28 0.24,0.48 h 9.12 4.56 V 104.2 l 21,16.68 0.24,0.24 h 5.52 V 93.04 Z"
         inkscape:connector-curvature="0"
         style="fill:#ffffff" />
      <path
         id="Path_3"
         d="m 434.52,93.04 h -16.44 c -5.76,0 -7.68,1.8 -7.68,7.08 v 13.92 c 0,5.28 1.92,7.08 7.68,7.08 h 16.44 c 5.76,0 7.68,-1.8 7.68,-7.08 v -3.96 h -0.84 -6.48 -0.84 v 4.32 H 418.32 V 99.64 h 15.72 v 3.84 h 0.84 7.32 v -3.36 c 0,-5.4 -1.92,-7.08 -7.68,-7.08 z"
         inkscape:connector-curvature="0"
         style="fill:#ffffff" />
      <path
         id="Path_4"
         d="m 474.24,114.52 h -21.36 v -4.92 h 12.84 v -6.12 H 452.88 V 99.4 h 21.84 v -6.36 h -29.88 v 28.08 h 30.24 v -6.6 z"
         inkscape:connector-curvature="0"
         style="fill:#ffffff" />
      <path
         id="Shape_2"
         d="m 91.08,109 9.36,-21.96 h 9.84 l 1.56,40.2 h -8.16 L 102.6,102.52 91.92,127.24 H 86.4 l -4.56,-22.32 -7.08,22.32 H 60.84 l -2.04,-12 h -9.48 l -5.4,12 h -8.64 l 1.2,-2.76 c 0,0 -0.12,0 -0.24,0.12 -12.84,7.32 -27.84002,0 -29.04002,-11.64 -0.96,-10.08 2.76,-17.52 10.56002,-22.32 5.76,-3.48 14.4,-6.72 25.44,-2.88 -0.6,3.96 -1.32,8.16 -1.32,8.16 -5.76,-2.64 -15.72,-1.8 -21.48,3.24 -7.08,6.12 -5.52,12.84 -3.84,15.84 2.64,4.8 8.88,5.28 12.48,3.72 l 0.72,-3.96 H 23.4 l 1.2,-7.44 h 15.24 l -2.28,14.52 15.36,-34.8 H 63 l 5.4,32.4 10.56,-32.4 h 8.16 z m -35.04,-9.48 -3.48,7.8 h 5.04 z"
         inkscape:connector-curvature="0"
         style="clip-rule:evenodd;fill:#ffffff;fill-rule:evenodd" />
      <path
         id="Path_5"
         d="m 112.68,127.12 h 22.92 l 1.32,-8.64 h -14.4 l 1.2,-7.08 h 12.48 l 1.32,-8.64 h -12.6 L 126,95.68 h 14.4 l 1.32,-8.64 h -22.68 z"
         inkscape:connector-curvature="0"
         style="fill:#ffffff" />
      <path
         id="Path_6"
         d="M 224.52,100.12 219.48,87.04 H 210 l 9.72,21.12 -3,18.96 H 225 l 2.52,-16.8 14.76,-23.28 h -9.6 z"
         inkscape:connector-curvature="0"
         style="fill:#ffffff" />
      <path
         id="Shape_3"
         d="m 181.08,103.6 c 2.52,-11.04 12,-18.24 21.12,-16.2 9,2.16 14.4,12.84 11.88,23.88 -2.52,11.04 -12,18.36 -21.12,16.2 -9.12,-2.16 -14.4,-12.84 -11.88,-23.88 z m 12.36,15.84 c 4.32,1.92 9.72,-1.92 11.88,-8.52 2.28,-6.6 0.6,-13.56 -3.84,-15.6 -4.32,-1.92 -9.72,1.92 -11.88,8.52 -2.16,6.72 -0.48,13.68 3.84,15.6 z"
         inkscape:connector-curvature="0"
         style="clip-rule:evenodd;fill:#ffffff;fill-rule:evenodd" />
      <path
         id="Shape_4"
         d="m 154.2,87.28 c 0,0 10.92,-0.12 15.36,0 5.52,0.12 15.84,8.52 5.52,19.32 10.08,9.24 -1.08,20.4 -8.64,20.4 h -18.48 l 6.36,-39.72 z m 11.52,15.84 h -5.76 l 1.32,-7.44 h 5.28 c 5.88,0 4.8,7.44 -0.84,7.44 z m -0.96,16.2 h -7.2 l 1.32,-7.92 h 6.84 c 6.48,-0.12 6.36,7.92 -0.96,7.92 z"
         inkscape:connector-curvature="0"
         style="clip-rule:evenodd;fill:#ffffff;fill-rule:evenodd" />
      <path
         id="Shape_5"
         d="m 233.04,127.72 c 2.28,0 4.2,-1.8 4.2,-4.2 0,-2.28 -1.8,-4.08 -4.2,-4.08 -2.28,0 -4.2,1.8 -4.2,4.08 0,2.4 1.8,4.2 4.2,4.2 z m 1.92,-5.28 c 0,0.96 -0.6,1.32 -1.44,1.32 l 1.44,2.16 h -0.72 l -1.32,-2.04 h -0.96 v 2.04 h -0.6 v -4.68 h 2.04 c 0.36,0 0.72,0 1.08,0.24 0.24,0.12 0.48,0.6 0.48,0.96 z m -3,-0.72 v 1.56 h 0.84 c 0.058,0 0.119,0.001 0.182,0.002 v 0 c 0.594,0.011 1.378,0.025 1.378,-0.842 0,-0.6 -0.48,-0.72 -1.08,-0.72 z m -2.4,1.8 c 0,2.04 1.56,3.48 3.48,3.48 1.92,0 3.36,-1.44 3.48,-3.48 0,-1.92 -1.56,-3.48 -3.48,-3.48 -1.92,0 -3.48,1.56 -3.48,3.48 z"
         inkscape:connector-curvature="0"
         style="clip-rule:evenodd;fill:#ffffff;fill-rule:evenodd" />
    </g>
    <g
       id="Group 119">
      <path
         id="path29-path"
         d="M 32.0227,60.3163 C 12.8266,60.3098 0,46.7061 0,30.2119 0,13.7177 12.8559,-0.0420482 31.9934,2.19212e-4 H 212.841 C 231.978,-0.042053 244.834,13.7177 244.834,30.2119 c 0,16.4942 -12.826,30.0979 -32.022,30.1044 z"
         inkscape:connector-curvature="0"
         style="fill:#e60012" />
      <path
         id="path29-path_2"
         d="M 32.0812,7.4198 C 16.8843,7.44907 7.55615,17.6063 7.55615,30.1728 c 0,12.5633 9.26965,22.8051 24.52505,22.7499 H 212.753 c 15.255,0.052 24.528,-10.1866 24.528,-22.7499 0,-12.5632 -9.328,-22.72049 -24.525,-22.74975 z"
         inkscape:connector-curvature="0"
         style="fill:#ffffff" />
      <path
         id="Subtract"
         d="m 217.994,20.5033 c 0,-2.4125 1.958,-4.3698 4.37,-4.3698 2.413,0 4.37,1.9573 4.37,4.3698 0,2.4125 -1.957,4.3699 -4.37,4.3699 -2.412,0 -4.37,-1.9574 -4.37,-4.3699 z m 4.37,3.5375 c 1.951,0 3.534,-1.5835 3.534,-3.5343 0,-1.954 -1.583,-3.5342 -3.534,-3.5342 -1.951,0 -3.534,1.5834 -3.534,3.5342 0,1.9508 1.583,3.5343 3.534,3.5343 z"
         inkscape:connector-curvature="0"
         style="clip-rule:evenodd;fill:#e60012;fill-rule:evenodd" />
      <path
         id="Subtract_2"
         d="m 224.539,19.4206 c 0,-0.9266 -0.686,-1.3948 -2.068,-1.3948 h -1.898 v 4.8412 h 1.18 v -1.9833 h 0.575 l 0.927,1.9833 h 1.31 l -1.082,-2.1621 c 0.66,-0.1658 1.056,-0.647 1.056,-1.2843 z m -2.211,0.7543 h -0.575 v -1.4078 h 0.517 c 0.709,0 1.057,0.2178 1.057,0.7218 0,0.4812 -0.326,0.686 -0.999,0.686 z"
         inkscape:connector-curvature="0"
         style="clip-rule:evenodd;fill:#e60012;fill-rule:evenodd" />
      <path
         id="Subtract_3"
         d="m 130.09,38.8443 c 0,-1.06 -0.006,-1.1445 -0.006,-1.1445 l 8.505,-0.0066 c -1.485,4.4576 -6.353,7.7447 -12.114,7.7447 -6.945,0 -12.573,-4.7437 -12.573,-10.5994 0,-5.8557 5.628,-10.6027 12.573,-10.6027 6.945,0 12.599,4.851 12.599,10.7067 0,0.0099 -16.085,0.0034 -16.085,0.0034 0,0 -0.006,2.8644 -0.006,3.8984 0,3.4529 2.312,4.2202 3.573,4.2202 1.262,0 3.534,-0.7673 3.534,-4.2202 z m -6.535,-10.541 c -0.543,0.9429 -0.579,2.0484 -0.566,3.7033 l 7.124,0.0033 c 0.013,-1.655 -0.01,-2.7605 -0.553,-3.7066 -0.666,-1.1634 -1.891,-1.7162 -3.002,-1.7232 0,0 10e-4,0 10e-4,0 h -0.003 c 0.001,0 0.001,0 0.002,0 -1.112,0.007 -2.337,0.5598 -3.003,1.7232 z"
         inkscape:connector-curvature="0"
         style="clip-rule:evenodd;fill:#e60012;fill-rule:evenodd" />
      <path
         id="path29-path_3"
         d="m 156.95,24.5512 c 3.193,-0.091 9.669,1.9996 9.624,9.4745 -0.007,1.3266 -0.003,10.2743 -0.003,10.2743 h -8.483 c 0,0 0,-11.2204 0,-12.4007 0,-1.6452 -1.574,-3.4757 -3.902,-3.4757 -2.325,0 -4.054,1.8305 -4.054,3.4757 0,0.8063 0.009,12.4007 0.009,12.4007 h -8.476 l 0.007,-18.8807 8.473,-0.0065 c 0,0 -0.01,1.5184 0,1.9866 1.632,-1.5574 3.986,-2.7669 6.805,-2.8482 z"
         inkscape:connector-curvature="0"
         style="fill:#e60012" />
      <path
         id="path29-path_4"
         d="m 87.5593,24.5512 c 3.1929,-0.091 9.6696,1.9996 9.6241,9.4745 C 97.1769,35.3523 97.18,44.3 97.18,44.3 h -8.4828 c 0,0 0,-11.2204 0,-12.4007 0,-1.6452 -1.5736,-3.4757 -3.9016,-3.4757 -2.3247,0 -4.0545,1.8305 -4.0545,3.4757 0,0.8063 0.0098,12.4007 0.0098,12.4007 h -8.4763 l -0.0034,-18.8807 8.4829,-0.0065 c 0,0 -0.0098,1.5184 0,1.9866 1.6321,-1.5574 3.9829,-2.7669 6.8051,-2.8482 z"
         inkscape:connector-curvature="0"
         style="fill:#e60012" />
      <path
         id="Subtract_4"
         d="m 193.404,15.9124 h -8.427 v 0 c 0,0 0,6.0768 0.006,10.4466 -1.366,-0.7673 -2.806,-1.5054 -4.832,-1.6842 -6.154,-0.5397 -10.856,4.903 -10.856,9.8874 0,6.571 5.069,9.003 5.84,9.3607 2.871,1.3395 6.558,1.3428 9.825,-0.7088 0,0.1755 0.004,1.0924 0.004,1.0924 h 8.44 z m -8.366,15.483 v 3.3749 0 c 0,0 0.004,2.1361 0.004,3.3489 0,2.9165 -2.019,3.6805 -3.349,3.6805 -1.356,0 -3.346,-0.764 -3.346,-3.6805 0,-1.0047 0.003,-3.3587 0.003,-3.3587 0,0 -0.003,-2.3962 -0.003,-3.3651 0,-2.9198 1.99,-3.6643 3.349,-3.6643 1.327,0 3.342,0.7445 3.342,3.6643 z"
         inkscape:connector-curvature="0"
         style="clip-rule:evenodd;fill:#e60012;fill-rule:evenodd" />
      <path
         id="Subtract_5"
         d="m 196.184,34.7378 c 0,-5.8557 5.586,-10.6027 12.479,-10.6027 6.893,0 12.479,4.747 12.479,10.6027 0,5.8557 -5.586,10.6027 -12.479,10.6027 -6.89,0 -12.479,-4.747 -12.479,-10.6027 z m 15.906,3.9764 c 0,-1.1445 0.003,-3.9992 0.003,-3.9992 l 0.003,0.0098 c -0.008,-0.6159 -0.007,-2.13 -0.006,-3.2898 0,-0.2668 0,-0.5149 0,-0.7289 0,-2.9978 -1.785,-4.23 -3.489,-4.23 -1.7,0 -3.489,1.2322 -3.489,4.23 0,1.1445 -0.006,3.9374 -0.006,3.9374 0,0 -0.004,2.9262 -0.004,4.0707 0,3.0108 1.785,4.2528 3.499,4.2528 1.71,0 3.489,-1.242 3.489,-4.2528 z"
         inkscape:connector-curvature="0"
         style="clip-rule:evenodd;fill:#e60012;fill-rule:evenodd" />
      <path
         id="path29-path_5"
         d="m 59.0122,21.7096 v -5.8037 h 8.5576 v 5.8037 z"
         inkscape:connector-curvature="0"
         style="fill:#e60012" />
      <path
         id="path29-path_6"
         d="M 59.0317,44.3065 V 25.4226 l 8.5381,0.0034 v 18.8806 z"
         inkscape:connector-curvature="0"
         style="fill:#e60012" />
      <path
         id="path29-path_7"
         d="m 101.869,44.3066 0.003,-18.8449 H 97.229 V 22.659 l 4.646,-0.0034 -0.006,-3.8236 h 8.544 v 3.8204 h 4.624 v 2.8092 h -4.624 l 0.007,18.8449 z"
         inkscape:connector-curvature="0"
         style="fill:#e60012" />
      <path
         id="path29-path_8"
         d="m 24.2844,44.3065 0.0033,-28.3941 h 8.8469 L 45.3728,35.7132 45.3663,15.9124 H 54.145 V 44.3065 H 45.3793 L 33.0761,24.5057 v 19.8008 z"
         inkscape:connector-curvature="0"
         style="fill:#e60012" />
    </g>
  </g>
</svg>

<svg width="483" height="136" viewBox="0 0 483 136" fill="none" xmlns="http://www.w3.org/2000/svg">
<g id="mainlogo">
<g id="Gameboy_advance_logo">
<path id="Path" d="M169.32 80.08C175.44 80.08 179.16 82.72 182.76 87.04C184.08 85.84 185.4 84.76 186.96 83.8C190.68 81.4 194.88 80.2 199.08 80.2H255.48L251.76 86.08L322.56 85.96L329.04 97.12L334.8 86.08H381.84L393.48 95.2V86.08H482.04V128.44H400.32L388.44 119.2V128.44H322.2L317.76 121.12C314.16 125.2 307.68 128.44 297 128.44H238.2C236.28 130.36 234.24 130.6 231.84 130.48L231.24 134.32H208.56L209.04 131.08C208.8 131.2 208.56 131.44 208.32 131.56C203.04 134.8 197.04 135.88 191.4 134.56C187.08 133.6 183.24 131.2 180.36 128.08C176.52 131.8 171.36 134.32 166.44 134.32L54.96 134.44L53.16 124.24L48.6 134.44H30C24.12 135.4 18.24 134.56 12.96 131.92C5.75997 128.08 0.959969 121.36 0.239969 113.8C-1.08003 101.2 3.83997 91.12 14.16 84.76C24.12 78.64 34.68 77.32 45.6 81.16L47.64 81.88L48.36 80.2H69.24L70.8 89.56L73.92 80.08H169.32Z" fill="#1F00CC"/>
<path id="Shape" fill-rule="evenodd" clip-rule="evenodd" d="M339 93.04H347.64L346.92 94.24L331.68 120.64L331.44 121H326.04L325.8 120.64L314.76 102.4C315.12 103.72 315.36 105.16 315.36 106.84C315.36 116.2 309.12 121 297 121H282.96H273.84L273.6 120.64L262.2 100.36L254.16 114.88H262.2V121.12H248.52H242.4L243.12 119.92L258.84 93.52L259.08 93.16H266.16L266.4 93.52L280.2 116.32V93.04H298.8C304.44 93.04 308.76 94.48 311.64 97.24L309.84 94.36L309.12 93.16H318.36L318.6 93.52L329.04 111.4L338.76 93.52L339 93.04ZM288.24 114.52H295.68C304.2 114.52 307.2 112.6 307.2 106.6C307.2 101.68 304.44 99.4 298.8 99.4H288.24V114.52Z" fill="white"/>
<path id="Path_2" d="M401.28 93.04H400.44V109.72L379.44 93.28L379.2 93.04H373.68V116.32L359.88 93.52L359.64 93.04H352.56L352.32 93.52L336.6 119.8L335.88 121.12H344.28H355.8V114.88H347.76L355.8 100.36L367.2 120.64L367.44 121.12H376.56H381.12V104.2L402.12 120.88L402.36 121.12H407.88V93.04H401.28Z" fill="white"/>
<path id="Path_3" d="M434.52 93.04H418.08C412.32 93.04 410.4 94.84 410.4 100.12V114.04C410.4 119.32 412.32 121.12 418.08 121.12H434.52C440.28 121.12 442.2 119.32 442.2 114.04V110.08H441.36H434.88H434.04V114.4H418.32V99.64H434.04V103.48H434.88H442.2V100.12C442.2 94.72 440.28 93.04 434.52 93.04Z" fill="white"/>
<path id="Path_4" d="M474.24 114.52H452.88V109.6H465.72V103.48H452.88V99.4H474.72V93.04H444.84V121.12H475.08V114.52H474.24Z" fill="white"/>
<path id="Shape_2" fill-rule="evenodd" clip-rule="evenodd" d="M91.08 109L100.44 87.04H110.28L111.84 127.24H103.68L102.6 102.52L91.92 127.24H86.4L81.84 104.92L74.76 127.24H60.84L58.8 115.24H49.32L43.92 127.24H35.28L36.48 124.48C36.48 124.48 36.36 124.48 36.24 124.6C23.4 131.92 8.39998 124.6 7.19998 112.96C6.23998 102.88 9.95998 95.44 17.76 90.64C23.52 87.16 32.16 83.92 43.2 87.76C42.6 91.72 41.88 95.92 41.88 95.92C36.12 93.28 26.16 94.12 20.4 99.16C13.32 105.28 14.88 112 16.56 115C19.2 119.8 25.44 120.28 29.04 118.72L29.76 114.76H23.4L24.6 107.32H39.84L37.56 121.84L52.92 87.04H63L68.4 119.44L78.96 87.04H87.12L91.08 109ZM56.04 99.52L52.56 107.32H57.6L56.04 99.52Z" fill="white"/>
<path id="Path_5" d="M112.68 127.12H135.6L136.92 118.48H122.52L123.72 111.4H136.2L137.52 102.76H124.92L126 95.68H140.4L141.72 87.04H119.04L112.68 127.12Z" fill="white"/>
<path id="Path_6" d="M224.52 100.12L219.48 87.04H210L219.72 108.16L216.72 127.12H225L227.52 110.32L242.28 87.04H232.68L224.52 100.12Z" fill="white"/>
<path id="Shape_3" fill-rule="evenodd" clip-rule="evenodd" d="M181.08 103.6C183.6 92.56 193.08 85.36 202.2 87.4C211.2 89.56 216.6 100.24 214.08 111.28C211.56 122.32 202.08 129.64 192.96 127.48C183.84 125.32 178.56 114.64 181.08 103.6ZM193.44 119.44C197.76 121.36 203.16 117.52 205.32 110.92C207.6 104.32 205.92 97.36 201.48 95.32C197.16 93.4 191.76 97.24 189.6 103.84C187.44 110.56 189.12 117.52 193.44 119.44Z" fill="white"/>
<path id="Shape_4" fill-rule="evenodd" clip-rule="evenodd" d="M154.2 87.28C154.2 87.28 165.12 87.16 169.56 87.28C175.08 87.4 185.4 95.8 175.08 106.6C185.16 115.84 174 127 166.44 127H147.96L154.32 87.28H154.2ZM165.72 103.12H159.96L161.28 95.68H166.56C172.44 95.68 171.36 103.12 165.72 103.12ZM164.76 119.32H157.56L158.88 111.4H165.72C172.2 111.28 172.08 119.32 164.76 119.32Z" fill="white"/>
<path id="Shape_5" fill-rule="evenodd" clip-rule="evenodd" d="M233.04 127.72C235.32 127.72 237.24 125.92 237.24 123.52C237.24 121.24 235.44 119.44 233.04 119.44C230.76 119.44 228.84 121.24 228.84 123.52C228.84 125.92 230.64 127.72 233.04 127.72ZM234.96 122.44C234.96 123.4 234.36 123.76 233.52 123.76L234.96 125.92H234.24L232.92 123.88H231.96V125.92H231.36V121.24H233.4C233.76 121.24 234.12 121.24 234.48 121.48C234.72 121.6 234.96 122.08 234.96 122.44ZM231.96 121.72V123.28H232.8C232.858 123.28 232.919 123.281 232.982 123.282L232.982 123.282C233.576 123.293 234.36 123.307 234.36 122.44C234.36 121.84 233.88 121.72 233.28 121.72H231.96ZM229.56 123.52C229.56 125.56 231.12 127 233.04 127C234.96 127 236.4 125.56 236.52 123.52C236.52 121.6 234.96 120.04 233.04 120.04C231.12 120.04 229.56 121.6 229.56 123.52Z" fill="white"/>
</g>
<g id="Group 119">
<path id="path29-path" d="M32.0227 60.3163C12.8266 60.3098 0 46.7061 0 30.2119C0 13.7177 12.8559 -0.0420482 31.9934 0.000219212H212.841C231.978 -0.042053 244.834 13.7177 244.834 30.2119C244.834 46.7061 232.008 60.3098 212.812 60.3163H32.0227Z" fill="#E60012"/>
<path id="path29-path_2" d="M32.0812 7.4198C16.8843 7.44907 7.55615 17.6063 7.55615 30.1728C7.55615 42.7361 16.8258 52.9779 32.0812 52.9227H212.753C228.008 52.9747 237.281 42.7361 237.281 30.1728C237.281 17.6096 227.953 7.45231 212.756 7.42305L32.0812 7.4198Z" fill="white"/>
<path id="Subtract" fill-rule="evenodd" clip-rule="evenodd" d="M217.994 20.5033C217.994 18.0908 219.952 16.1335 222.364 16.1335C224.777 16.1335 226.734 18.0908 226.734 20.5033C226.734 22.9158 224.777 24.8732 222.364 24.8732C219.952 24.8732 217.994 22.9158 217.994 20.5033ZM222.364 24.0408C224.315 24.0408 225.898 22.4573 225.898 20.5065C225.898 18.5525 224.315 16.9723 222.364 16.9723C220.413 16.9723 218.83 18.5557 218.83 20.5065C218.83 22.4573 220.413 24.0408 222.364 24.0408Z" fill="#E60012"/>
<path id="Subtract_2" fill-rule="evenodd" clip-rule="evenodd" d="M224.539 19.4206C224.539 18.494 223.853 18.0258 222.471 18.0258H220.573V22.867H221.753V20.8837H222.328L223.255 22.867H224.565L223.483 20.7049C224.143 20.5391 224.539 20.0579 224.539 19.4206ZM222.328 20.1749H221.753V18.7671H222.27C222.979 18.7671 223.327 18.9849 223.327 19.4889C223.327 19.9701 223.001 20.1749 222.328 20.1749Z" fill="#E60012"/>
<path id="Subtract_3" fill-rule="evenodd" clip-rule="evenodd" d="M130.09 38.8443C130.09 37.7843 130.084 37.6998 130.084 37.6998L138.589 37.6932C137.104 42.1508 132.236 45.4379 126.475 45.4379C119.53 45.4379 113.902 40.6942 113.902 34.8385C113.902 28.9828 119.53 24.2358 126.475 24.2358C133.42 24.2358 139.074 29.0868 139.074 34.9425C139.074 34.9524 122.989 34.9459 122.989 34.9459C122.989 34.9459 122.983 37.8103 122.983 38.8443C122.983 42.2972 125.295 43.0645 126.556 43.0645C127.818 43.0645 130.09 42.2972 130.09 38.8443ZM123.555 28.3033C123.012 29.2462 122.976 30.3517 122.989 32.0066L130.113 32.0099C130.126 30.3549 130.103 29.2494 129.56 28.3033C128.894 27.1399 127.669 26.5871 126.558 26.5801C126.558 26.5801 126.559 26.5801 126.559 26.5801H126.556C126.557 26.5801 126.557 26.5801 126.558 26.5801C125.446 26.5871 124.221 27.1399 123.555 28.3033Z" fill="#E60012"/>
<path id="path29-path_3" d="M156.95 24.5512C160.143 24.4602 166.619 26.5508 166.574 34.0257C166.567 35.3523 166.571 44.3 166.571 44.3H158.088C158.088 44.3 158.088 33.0796 158.088 31.8993C158.088 30.2541 156.514 28.4236 154.186 28.4236C151.861 28.4236 150.132 30.2541 150.132 31.8993C150.132 32.7056 150.141 44.3 150.141 44.3H141.665L141.672 25.4193L150.145 25.4128C150.145 25.4128 150.135 26.9312 150.145 27.3994C151.777 25.842 154.131 24.6325 156.95 24.5512L156.95 24.5512Z" fill="#E60012"/>
<path id="path29-path_4" d="M87.5593 24.5512C90.7522 24.4602 97.2289 26.5508 97.1834 34.0257C97.1769 35.3523 97.18 44.3 97.18 44.3H88.6972C88.6972 44.3 88.6972 33.0796 88.6972 31.8993C88.6972 30.2541 87.1236 28.4236 84.7956 28.4236C82.4709 28.4236 80.7411 30.2541 80.7411 31.8993C80.7411 32.7056 80.7509 44.3 80.7509 44.3H72.2746L72.2712 25.4193L80.7541 25.4128C80.7541 25.4128 80.7443 26.9312 80.7541 27.3994C82.3862 25.842 84.737 24.6325 87.5592 24.5512L87.5593 24.5512Z" fill="#E60012"/>
<path id="Subtract_4" fill-rule="evenodd" clip-rule="evenodd" d="M193.404 15.9124H184.977H184.977C184.977 15.9124 184.977 21.9892 184.983 26.359C183.617 25.5917 182.177 24.8536 180.151 24.6748C173.997 24.1351 169.295 29.5778 169.295 34.5622C169.295 41.1332 174.364 43.5652 175.135 43.9229C178.006 45.2624 181.693 45.2657 184.96 43.2141C184.96 43.3896 184.964 44.3065 184.964 44.3065H193.404V15.9124ZM185.038 31.3954V34.7703H185.038C185.038 34.7703 185.042 36.9064 185.042 38.1192C185.042 41.0357 183.023 41.7997 181.693 41.7997C180.337 41.7997 178.347 41.0357 178.347 38.1192C178.347 37.1145 178.35 34.7605 178.35 34.7605C178.35 34.7605 178.347 32.3643 178.347 31.3954C178.347 28.4756 180.337 27.7311 181.696 27.7311C183.023 27.7311 185.038 28.4756 185.038 31.3954Z" fill="#E60012"/>
<path id="Subtract_5" fill-rule="evenodd" clip-rule="evenodd" d="M196.184 34.7378C196.184 28.8821 201.77 24.1351 208.663 24.1351C215.556 24.1351 221.142 28.8821 221.142 34.7378C221.142 40.5935 215.556 45.3405 208.663 45.3405C201.773 45.3405 196.184 40.5935 196.184 34.7378ZM212.09 38.7142C212.09 37.5697 212.093 34.715 212.093 34.715L212.096 34.7248C212.088 34.1089 212.089 32.5948 212.09 31.435C212.09 31.1682 212.09 30.9201 212.09 30.7061C212.09 27.7083 210.305 26.4761 208.601 26.4761C206.901 26.4761 205.112 27.7083 205.112 30.7061C205.112 31.8506 205.106 34.6435 205.106 34.6435C205.106 34.6435 205.102 37.5697 205.102 38.7142C205.102 41.725 206.887 42.967 208.601 42.967C210.311 42.967 212.09 41.725 212.09 38.7142Z" fill="#E60012"/>
<path id="path29-path_5" d="M59.0122 21.7096V15.9059H67.5698V21.7096H59.0122Z" fill="#E60012"/>
<path id="path29-path_6" d="M59.0317 44.3065V25.4226L67.5698 25.426V44.3066L59.0317 44.3065Z" fill="#E60012"/>
<path id="path29-path_7" d="M101.869 44.3066L101.872 25.4617H97.229V22.659L101.875 22.6556L101.869 18.832H110.413V22.6524H115.037V25.4616H110.413L110.42 44.3065L101.869 44.3066Z" fill="#E60012"/>
<path id="path29-path_8" d="M24.2844 44.3065L24.2877 15.9124H33.1346L45.3728 35.7132L45.3663 15.9124H54.145V44.3065H45.3793L33.0761 24.5057V44.3065H24.2844Z" fill="#E60012"/>
</g>
</g>
</svg>
